images.jpg/client-4.svg

<svg width="85" height="42" viewBox="0 0 85 42" fill="none" xmlns="http://www.w3.org/2000/svg">
<path d="M13.1462 13.1028H13.1433C10.7453 13.1028 8.80127 14.8304 8.80127 16.9615V16.964C8.80127 19.0951 10.7453 20.8227 13.1433 20.8227H13.1462C15.5442 20.8227 17.4882 19.0951 17.4882 16.964V16.9615C17.4882 14.8304 15.5442 13.1028 13.1462 13.1028Z" fill="#2196F3"/>
<path d="M45.195 11.8693C45.1882 8.90929 43.8623 6.07223 41.5074 3.97895C39.1525 1.88568 35.9604 0.706672 32.6297 0.699951V0.699951C29.298 0.705328 26.1045 1.88374 23.7484 3.97716C21.3922 6.07058 20.0655 8.90841 20.0587 11.8693V28.1921C20.0587 28.1921 45.1922 25.7044 45.195 11.8718V11.8693Z" fill="#2196F3"/>
<path d="M0 33.5495C0.00604098 35.6091 0.929149 37.5828 2.56761 39.0394C4.20607 40.496 6.42668 41.317 8.74418 41.3231C11.0612 41.317 13.2814 40.4963 14.9197 39.0403C16.5581 37.5843 17.4816 35.6112 17.4884 33.552V22.1943C17.4884 22.1943 0 23.9266 0 33.5495ZM8.74418 35.5844C8.2913 35.5844 7.84859 35.4651 7.47203 35.2415C7.09548 35.0179 6.80199 34.7001 6.62868 34.3282C6.45537 33.9564 6.41002 33.5472 6.49838 33.1525C6.58673 32.7577 6.80481 32.3951 7.12505 32.1105C7.44528 31.8259 7.85328 31.6321 8.29746 31.5536C8.74164 31.4751 9.20204 31.5154 9.62045 31.6694C10.0389 31.8234 10.3965 32.0843 10.6481 32.4189C10.8997 32.7535 11.034 33.147 11.034 33.5495C11.0351 33.8173 10.9767 34.0828 10.8622 34.3306C10.7476 34.5783 10.5791 34.8036 10.3664 34.9933C10.1536 35.1831 9.90081 35.3337 9.62244 35.4364C9.34406 35.5392 9.04561 35.5921 8.74418 35.5921V35.5844Z" fill="#2196F3"/>
<path d="M26.4177 34.4637H24.7302V36.2069H23.8513V31.9413H26.6286V32.6532H24.7302V33.7548H26.4177V34.4637ZM30.6423 34.1708C30.6423 34.5907 30.5681 34.9589 30.4196 35.2753C30.2712 35.5917 30.0583 35.8358 29.7809 36.0077C29.5056 36.1796 29.1891 36.2655 28.8317 36.2655C28.4782 36.2655 28.1628 36.1805 27.8854 36.0106C27.6081 35.8407 27.3932 35.5985 27.2409 35.2841C27.0886 34.9677 27.0114 34.6044 27.0095 34.1942V33.9833C27.0095 33.5634 27.0847 33.1942 27.235 32.8759C27.3874 32.5555 27.6013 32.3104 27.8766 32.1405C28.154 31.9686 28.4704 31.8827 28.8259 31.8827C29.1813 31.8827 29.4968 31.9686 29.7722 32.1405C30.0495 32.3104 30.2634 32.5555 30.4138 32.8759C30.5661 33.1942 30.6423 33.5624 30.6423 33.9803V34.1708ZM29.7516 33.9774C29.7516 33.5302 29.6716 33.1903 29.5114 32.9579C29.3513 32.7255 29.1227 32.6093 28.8259 32.6093C28.5309 32.6093 28.3034 32.7245 28.1432 32.955C27.9831 33.1835 27.902 33.5194 27.9001 33.9628V34.1708C27.9001 34.6063 27.9802 34.9442 28.1403 35.1844C28.3005 35.4247 28.5309 35.5448 28.8317 35.5448C29.1266 35.5448 29.3532 35.4296 29.5114 35.1991C29.6696 34.9667 29.7497 34.6288 29.7516 34.1854V33.9774ZM33.4929 35.0878C33.4929 34.9218 33.4343 34.7948 33.3171 34.7069C33.1999 34.6171 32.989 34.5233 32.6843 34.4257C32.3796 34.326 32.1384 34.2284 31.9606 34.1327C31.4763 33.871 31.2341 33.5184 31.2341 33.0751C31.2341 32.8446 31.2985 32.6395 31.4274 32.4598C31.5583 32.2782 31.7448 32.1366 31.987 32.035C32.2311 31.9335 32.5046 31.8827 32.8073 31.8827C33.112 31.8827 33.3835 31.9384 33.6218 32.0497C33.86 32.1591 34.0446 32.3143 34.1755 32.5155C34.3083 32.7167 34.3747 32.9452 34.3747 33.201H33.4958C33.4958 33.0057 33.4343 32.8544 33.3112 32.7469C33.1882 32.6376 33.0153 32.5829 32.7927 32.5829C32.5778 32.5829 32.4108 32.6288 32.2917 32.7206C32.1725 32.8104 32.113 32.9296 32.113 33.078C32.113 33.2167 32.1823 33.3329 32.321 33.4266C32.4616 33.5204 32.6677 33.6083 32.9391 33.6903C33.4391 33.8407 33.8034 34.0272 34.0319 34.2499C34.2604 34.4725 34.3747 34.7499 34.3747 35.0819C34.3747 35.451 34.235 35.7411 33.9557 35.952C33.6765 36.161 33.3005 36.2655 32.8278 36.2655C32.4997 36.2655 32.2009 36.2059 31.9313 36.0868C31.6618 35.9657 31.4557 35.8007 31.3132 35.5917C31.1725 35.3827 31.1022 35.1405 31.1022 34.8651H31.9841C31.9841 35.3358 32.2653 35.5712 32.8278 35.5712C33.0368 35.5712 33.1999 35.5292 33.3171 35.4452C33.4343 35.3593 33.4929 35.2401 33.4929 35.0878ZM38.1833 32.6532H36.8766V36.2069H35.9977V32.6532H34.7087V31.9413H38.1833V32.6532ZM41.2536 34.3583H39.5661V35.5009H41.5466V36.2069H38.6872V31.9413H41.5407V32.6532H39.5661V33.6698H41.2536V34.3583ZM43.6413 34.6454H42.9411V36.2069H42.0622V31.9413H43.6472C44.1511 31.9413 44.5397 32.0536 44.8132 32.2782C45.0866 32.5028 45.2233 32.8202 45.2233 33.2303C45.2233 33.5214 45.1599 33.7645 45.0329 33.9598C44.9079 34.1532 44.7175 34.3075 44.4616 34.4227L45.3845 36.1659V36.2069H44.4411L43.6413 34.6454ZM42.9411 33.9335H43.6501C43.8708 33.9335 44.0417 33.8778 44.1628 33.7665C44.2839 33.6532 44.3444 33.4979 44.3444 33.3007C44.3444 33.0995 44.2868 32.9413 44.1716 32.826C44.0583 32.7108 43.8835 32.6532 43.6472 32.6532H42.9411V33.9335ZM48.2673 34.704V36.2069H47.3884V31.9413H49.0524C49.3727 31.9413 49.654 31.9999 49.8962 32.1171C50.1403 32.2343 50.3278 32.4012 50.4587 32.618C50.5895 32.8329 50.655 33.078 50.655 33.3534C50.655 33.7714 50.5114 34.1014 50.2243 34.3436C49.9391 34.5839 49.5436 34.704 49.0378 34.704H48.2673ZM48.2673 33.9921H49.0524C49.2849 33.9921 49.4616 33.9374 49.5827 33.828C49.7057 33.7186 49.7673 33.5624 49.7673 33.3593C49.7673 33.1503 49.7057 32.9813 49.5827 32.8524C49.4597 32.7235 49.2897 32.6571 49.0729 32.6532H48.2673V33.9921ZM53.8278 34.3583H52.1403V35.5009H54.1208V36.2069H51.2614V31.9413H54.1149V32.6532H52.1403V33.6698H53.8278V34.3583ZM57.9059 32.6532H56.5993V36.2069H55.7204V32.6532H54.4313V31.9413H57.9059V32.6532ZM60.9763 34.3583H59.2888V35.5009H61.2692V36.2069H58.4099V31.9413H61.2634V32.6532H59.2888V33.6698H60.9763V34.3583ZM63.364 34.6454H62.6638V36.2069H61.7849V31.9413H63.3698C63.8737 31.9413 64.2624 32.0536 64.5358 32.2782C64.8093 32.5028 64.946 32.8202 64.946 33.2303C64.946 33.5214 64.8825 33.7645 64.7556 33.9598C64.6306 34.1532 64.4401 34.3075 64.1843 34.4227L65.1071 36.1659V36.2069H64.1638L63.364 34.6454ZM62.6638 33.9335H63.3727C63.5934 33.9335 63.7643 33.8778 63.8854 33.7665C64.0065 33.6532 64.0671 33.4979 64.0671 33.3007C64.0671 33.0995 64.0095 32.9413 63.8942 32.826C63.7809 32.7108 63.6061 32.6532 63.3698 32.6532H62.6638V33.9335ZM67.8288 35.0878C67.8288 34.9218 67.7702 34.7948 67.653 34.7069C67.5358 34.6171 67.3249 34.5233 67.0202 34.4257C66.7155 34.326 66.4743 34.2284 66.2966 34.1327C65.8122 33.871 65.57 33.5184 65.57 33.0751C65.57 32.8446 65.6345 32.6395 65.7634 32.4598C65.8942 32.2782 66.0807 32.1366 66.3229 32.035C66.5671 31.9335 66.8405 31.8827 67.1432 31.8827C67.4479 31.8827 67.7194 31.9384 67.9577 32.0497C68.196 32.1591 68.3806 32.3143 68.5114 32.5155C68.6442 32.7167 68.7106 32.9452 68.7106 33.201H67.8317C67.8317 33.0057 67.7702 32.8544 67.6472 32.7469C67.5241 32.6376 67.3513 32.5829 67.1286 32.5829C66.9138 32.5829 66.7468 32.6288 66.6276 32.7206C66.5085 32.8104 66.4489 32.9296 66.4489 33.078C66.4489 33.2167 66.5182 33.3329 66.6569 33.4266C66.7975 33.5204 67.0036 33.6083 67.2751 33.6903C67.7751 33.8407 68.1393 34.0272 68.3679 34.2499C68.5964 34.4725 68.7106 34.7499 68.7106 35.0819C68.7106 35.451 68.571 35.7411 68.2917 35.952C68.0124 36.161 67.6364 36.2655 67.1638 36.2655C66.8356 36.2655 66.5368 36.2059 66.2673 36.0868C65.9977 35.9657 65.7917 35.8007 65.6491 35.5917C65.5085 35.3827 65.4382 35.1405 65.4382 34.8651H66.32C66.32 35.3358 66.6013 35.5712 67.1638 35.5712C67.3727 35.5712 67.5358 35.5292 67.653 35.4452C67.7702 35.3593 67.8288 35.2401 67.8288 35.0878Z" fill="#2196F3"/>
</svg>

<svg width="85" height="42" fill="none" xmlns="http://www.w3.org/2000/svg"><path d="M13.146 13.103h-.003c-2.398 0-4.342 1.727-4.342 3.859v.002c0 2.131 1.944 3.859 4.342 3.859h.003c2.398 0 4.342-1.728 4.342-3.859v-.002c0-2.132-1.944-3.86-4.342-3.86ZM45.195 11.87c-.007-2.96-1.333-5.798-3.688-7.891C39.153 1.886 35.96.707 32.63.7c-3.332.005-6.526 1.184-8.882 3.277-2.356 2.094-3.683 4.931-3.69 7.892v16.323s25.134-2.488 25.137-16.32v-.003ZM0 33.55c.006 2.06.93 4.033 2.568 5.49 1.638 1.456 3.859 2.277 6.176 2.283 2.317-.006 4.537-.827 6.176-2.283 1.638-1.456 2.562-3.429 2.568-5.488V22.194S0 23.927 0 33.55Zm8.744 2.034c-.453 0-.895-.119-1.272-.343a2.107 2.107 0 0 1-.843-.913 1.825 1.825 0 0 1-.13-1.175c.088-.395.306-.758.626-1.042a2.39 2.39 0 0 1 1.172-.557 2.558 2.558 0 0 1 1.323.115c.419.154.777.415 1.028.75.252.335.386.728.386 1.13.001.268-.057.534-.172.782a2.036 2.036 0 0 1-.496.662c-.212.19-.465.34-.744.443a2.54 2.54 0 0 1-.878.156v-.008ZM26.418 34.464H24.73v1.743h-.879V31.94h2.778v.712H24.73v1.102h1.688v.709Zm4.224-.293c0 .42-.074.788-.222 1.104-.149.317-.362.56-.64.733a1.755 1.755 0 0 1-.948.258c-.354 0-.67-.085-.947-.255a1.695 1.695 0 0 1-.644-.727 2.511 2.511 0 0 1-.232-1.09v-.21c0-.42.076-.79.226-1.108.152-.32.366-.566.642-.735.277-.172.593-.258.949-.258.355 0 .67.086.946.258.277.17.491.415.642.735.152.318.228.686.228 1.104v.19Zm-.89-.194c0-.447-.08-.787-.24-1.02a.783.783 0 0 0-.686-.348.782.782 0 0 0-.683.346c-.16.229-.241.564-.243 1.008v.208c0 .435.08.773.24 1.013.16.24.39.36.692.36a.775.775 0 0 0 .68-.345c.158-.232.238-.57.24-1.014v-.208Zm3.74 1.11a.447.447 0 0 0-.175-.38c-.117-.09-.328-.184-.633-.281a4.575 4.575 0 0 1-.723-.293c-.485-.262-.727-.615-.727-1.058 0-.23.064-.436.193-.615.131-.182.318-.323.56-.425.244-.101.518-.152.82-.152.305 0 .576.055.815.167.238.11.423.264.553.466.133.2.2.43.2.685h-.88c0-.195-.06-.347-.184-.454-.123-.11-.296-.164-.518-.164-.215 0-.382.046-.501.138a.426.426 0 0 0-.179.357c0 .139.07.255.208.349.14.093.347.181.618.263.5.15.864.337 1.093.56.228.222.343.5.343.832 0 .369-.14.66-.42.87-.279.209-.654.314-1.127.314-.328 0-.627-.06-.897-.18a1.438 1.438 0 0 1-.618-.494 1.27 1.27 0 0 1-.21-.727h.881c0 .47.281.706.844.706.209 0 .372-.042.49-.126a.418.418 0 0 0 .175-.357Zm4.691-2.434h-1.306v3.554h-.88v-3.554H34.71v-.712h3.474v.712Zm3.07 1.705h-1.687v1.143h1.98v.706h-2.859V31.94h2.854v.712h-1.975v1.017h1.688v.688Zm2.388.287h-.7v1.562h-.879V31.94h1.585c.504 0 .893.113 1.166.337.274.225.41.542.41.952 0 .291-.063.535-.19.73a1.282 1.282 0 0 1-.571.463l.922 1.743v.04h-.943l-.8-1.56Zm-.7-.712h.71c.22 0 .39-.055.512-.166a.607.607 0 0 0 .181-.466c0-.202-.057-.36-.172-.475-.114-.115-.288-.173-.525-.173h-.706v1.28Zm5.326.771v1.503h-.879V31.94h1.664c.32 0 .602.059.844.176.244.117.432.284.563.501.13.215.196.46.196.735 0 .418-.144.748-.43.99-.286.24-.681.361-1.187.361h-.77Zm0-.712h.785c.233 0 .41-.055.53-.164.124-.11.185-.266.185-.469a.704.704 0 0 0-.184-.507c-.123-.128-.293-.195-.51-.199h-.806v1.34Zm5.56.366H52.14v1.143h1.98v.706h-2.859V31.94h2.854v.712H52.14v1.017h1.688v.688Zm4.079-1.705h-1.307v3.554h-.879v-3.554h-1.289v-.712h3.475v.712Zm3.07 1.705H59.29v1.143h1.98v.706h-2.86V31.94h2.854v.712H59.29v1.017h1.687v.688Zm2.388.287h-.7v1.562h-.88V31.94h1.586c.504 0 .892.113 1.166.337.273.225.41.542.41.952 0 .291-.064.535-.19.73a1.283 1.283 0 0 1-.572.463l.923 1.743v.04h-.943l-.8-1.56Zm-.7-.712h.709c.22 0 .391-.055.512-.166a.607.607 0 0 0 .182-.466c0-.202-.057-.36-.173-.475-.113-.115-.288-.173-.524-.173h-.706v1.28Zm5.165 1.155a.447.447 0 0 0-.176-.381c-.117-.09-.328-.184-.633-.281a4.57 4.57 0 0 1-.723-.293c-.485-.262-.727-.615-.727-1.058 0-.23.065-.436.193-.615.131-.182.318-.323.56-.425.244-.101.518-.152.82-.152.305 0 .576.055.815.167.238.11.423.264.553.466.133.2.2.43.2.685h-.88c0-.195-.06-.347-.184-.454-.123-.11-.296-.164-.518-.164-.215 0-.382.046-.501.138a.426.426 0 0 0-.18.357c0 .139.07.255.209.349.14.093.347.181.618.263.5.15.864.337 1.093.56.228.222.343.5.343.832 0 .369-.14.66-.42.87-.279.209-.655.314-1.127.314-.328 0-.627-.06-.897-.18a1.438 1.438 0 0 1-.618-.494 1.27 1.27 0 0 1-.21-.727h.881c0 .47.281.706.844.706.209 0 .372-.042.489-.126a.418.418 0 0 0 .176-.357Z" fill="#2196F3"/></svg>
